X:1
T:St. Andrew (Tans’ur), CM
T:St. Andrew (Tans’ur), CM
T:William Tans’ur, 1735
T:Public Domain Courtesy of the Cyber Hymnal™
C:William Tans’ur, 1735
Z:Public Domain
Z:Courtesy of the Cyber Hymnal™
%%score ( 1 2 ) ( 3 4 )
L:1/8
Q:1/4=135
M:3/4
K:G
V:1 treble 
V:2 treble 
V:3 bass 
V:4 bass 
V:1
 [DG]2 | [DB]4 [DB]2 | [DA]4 [DB]2 | [EG]4 [DF]2 | [DG]4 [DB]2 | [Fd]4 [Ec]2 | (B2 G2) [GB]2 | %7
 [FA]4 [A,D]2 | [DG]4 [DA]2 | [DB]4 [Dd]2 | [Ec]4 [DB]2 | [DA]4 [DA]2 | [DB]4 [CG]2 | %13
 ([Ec]2 [DB]2) [CA]2 | [B,G]4 |] %15
V:2
 x2 | x6 | x6 | x6 | x6 | x6 | D4 x2 | x6 | x6 | x6 | x6 | x6 | x6 | x6 | x4 |] %15
V:3
 [G,B,]2 | G,4 G,2 | [D,F,]4 [B,,G,]2 | [C,C]4 [D,A,]2 | [G,,B,]4 G,2 | [D,A,]4 [F,A,]2 | %6
 B,4 [G,D]2 | [D,D]4 [C,F,]2 | [B,,G,]4 [A,,F,]2 | [G,,G,]4 [B,,G,]2 | [C,G,]4 G,2 | %11
 [D,F,]4 [D,F,]2 | [B,,G,]4 [E,G,]2 | G,4 [D,F,]2 | [G,,G,]4 |] %15
V:4
 x2 | G,4 G,2 | x6 | x6 | x4 G,2 | x6 | (G,2 B,2) x2 | x6 | x6 | x6 | x4 G,2 | x6 | x6 | %13
 (C,2 D,2) x2 | x4 |] %15

